!!!SOCIAL_FUNCTION:	songs connected with war and hunting
!!!PDT:	1932
!!!OTL: No_28_I_Offer_My_Song.krn
!!!REG: Wisconsin
!!!LANG: Non-Tone
!!!LING_GROUP: Algonquin
**kern
*staff1
=1-
*clefF4
*k[f#c#]
*M2/4
4r
4d\
=2||
*M5/4
4d\
4d\
8.d\L
16B\Jk
8A\
8r
4A\
=3
4A\
4A\
8.A\L
16F#\Jk
8E\
8r
4A\
=4
4A\
4A\
8.A\L
16A\Jk
4G\
4G\
=5
4E\
4E\
8.E\L
16D\Jk
4D\
4D\
=6
4D\
4D\
8.D\L
16D\Jk
8BB/
8r
4D\
=7
4E\
4E\
8.E\L
16E\Jk
4D\
(8.E\L
16D\Jk)
=8||
*M4/4
4D\
4D\
8D\
8r
8D/L
8BB/J
=9
[2AA/
2AA/]
=10||
*M2/4
8AA/
8r
4r
==
*-
